Adwaita++-Light/panel/22/mintupdate-up-to-date.svg

<svg height="22" width="22" xmlns="http://www.w3.org/2000/svg">
  <path d="m14 8 1.414 1.4141-5.414 5.5859-3.4141-3.5859 1.4141-1.4141 2 2.172zm-3-5c-2.1481 1.9698-5.7654 3.7049-7 4 0 5.333 2.625 11.111 7 12 4.375-.889 7-6.667 7-12-1.235-.2951-4.852-2.0302-7-4z" fill="#444" fill-rule="evenodd"/>
</svg>

<svg xmlns="http://www.w3.org/2000/svg" width="22" height="22" version="1.1">
 <defs>
  <style id="current-color-scheme" type="text/css">
   .ColorScheme-Text { color:#444444; } .ColorScheme-Highlight { color:#4285f4; }
  </style>
 </defs>
 <g>
  <path style="fill:currentColor;fill-rule:evenodd" class="ColorScheme-Text" d="M 14,8 15.414,9.4141 10,15 6.5859,11.4141 8,10 10,12.172 Z M 11,3 C 8.8519,4.9698 5.2346,6.7049 4,7 4,12.333 6.625,18.111 11,19 15.375,18.111 18,12.333 18,7 16.765,6.7049 13.148,4.9698 11,3 Z"/>
 </g>
</svg>
